X: 49
T:Soldiers' Joy
% Nottingham Music Database
S:Kevin Briggs, via EF
M:4/4
L:1/4
K:D
P:A
F/2G/2|"D"A/2F/2D/2F/2 A/2F/2D/2F/2|"D"Ad "G"dc/2B/2|\
"D"A/2F/2D/2F/2 A/2F/2D/2F/2|"E7"GE "A7"EF/2G/2|
"D"A/2F/2D/2F/2 A/2F/2D/2F/2|"D"Ad "G"dg|"D/a"f/2a/2f/2d/2 "A7"e/2g/2e/2c/2|\
"D"ed d:|
P:B
d/2e/2|"D"ff/2d/2 f/2a/2g/2f/2|"A7"ee/2c/2 e/2g/2f/2e/2|\
"D"ff/2d/2 f/2a/2g/2f/2|"E7""G"e/2d/2c/2B/2 "A7""A"Ad/2e/2|
"D""Bm"f/2d/2f/2d/2 f/2a/2g/2f/2|"Em"e/2c/2e/2c/2 "A7"e/2g/2f/2e/2|\
"D"f/2a/2f/2d/2 "A7"e/2g/2e/2c/2|"D"ed d:|


